X:1
T:Britannia Mine
M:4/4
L:1/4
K:G
 B| A G A B| e d B G| A/2 A G/2 E D| E3| e| e f g f| e B d e| B A G A|\
 B3| e| e f g f| e B c e| B A G A| B3| B| A G A B| e d B G| A G E D|\
 E3||
